_includes/icons/ios-downloads-folder.svg

<svg fill="#666" height="50" viewBox="0 0 50 50" width="50" xmlns="http://www.w3.org/2000/svg"><path d="m5 4c-1.6449698 0-3 1.3550302-3 3v9 10 17c0 1.64497 1.3550302 3 3 3h40c1.64497 0 3-1.35503 3-3v-32c0-1.6449698-1.35503-3-3-3h-27c.08657 0-.03101.000364-.275391-.28125-.244382-.281614-.54519-.7488088-.859375-1.25-.314184-.5011912-.643457-1.0359601-1.058593-1.5058594-.415137-.4698992-.987887-.9628906-1.806641-.9628906zm0 2h9c-.06075 0 .06114.00701.308594.2871094.247457.2801007.548637.7453318.861328 1.2441406s.636507 1.031614 1.042969 1.5c.406461.468386.966036.96875 1.787109.96875h27c.56503 0 1 .43497 1 1v2.1875c-.314892-.11356-.648157-.1875-1-.1875h-40c-.3518425 0-.6851085.07394-1 .1875v-6.1875c0-.5650302.4349698-1 1-1zm0 9h40c.56503 0 1 .43497 1 1v27c0 .56503-.43497 1-1 1h-40c-.5650302 0-1-.43497-1-1v-27c0-.56503.4349698-1 1-1zm19.984375 3.986328a1.0001 1.0001 0 0 0 -.984375 1.013672v12.585938l-3.292969-3.292969a1.0001 1.0001 0 0 0 -.716797-.302735 1.0001 1.0001 0 0 0 -.697265 1.716797l4.857422 4.857422a1.0001 1.0001 0 0 0 .855468.449219 1.0001 1.0001 0 0 0 .001953 0 1.0001 1.0001 0 0 0 .001954 0 1.0001 1.0001 0 0 0 .003906 0 1.0001 1.0001 0 0 0 .839844-.453125l4.853515-4.853516a1.0001 1.0001 0 0 0 -.726562-1.716797 1.0001 1.0001 0 0 0 -.6875.302735l-3.292969 3.292969v-12.585938a1.0001 1.0001 0 0 0 -1.015625-1.013672zm-9.984375 19.013672a1.0001 1.0001 0 1 0 0 2h20a1.0001 1.0001 0 1 0 0-2z"/></svg>

<svg xmlns="http://www.w3.org/2000/svg" viewBox="0 0 50 50" width="50" height="50" fill="#666"><path style="line-height:normal;text-indent:0;text-align:start;text-decoration-line:none;text-decoration-style:solid;text-decoration-color:#000;text-transform:none;block-progression:tb;isolation:auto;mix-blend-mode:normal" d="M 5 4 C 3.3550302 4 2 5.3550302 2 7 L 2 16 L 2 26 L 2 43 C 2 44.64497 3.3550302 46 5 46 L 45 46 C 46.64497 46 48 44.64497 48 43 L 48 11 C 48 9.3550302 46.64497 8 45 8 L 18 8 C 18.08657 8 17.96899 8.000364 17.724609 7.71875 C 17.480227 7.437136 17.179419 6.9699412 16.865234 6.46875 C 16.55105 5.9675588 16.221777 5.4327899 15.806641 4.9628906 C 15.391504 4.4929914 14.818754 4 14 4 L 5 4 z M 5 6 L 14 6 C 13.93925 6 14.06114 6.00701 14.308594 6.2871094 C 14.556051 6.5672101 14.857231 7.0324412 15.169922 7.53125 C 15.482613 8.0300588 15.806429 8.562864 16.212891 9.03125 C 16.619352 9.499636 17.178927 10 18 10 L 45 10 C 45.56503 10 46 10.43497 46 11 L 46 13.1875 C 45.685108 13.07394 45.351843 13 45 13 L 5 13 C 4.6481575 13 4.3148915 13.07394 4 13.1875 L 4 7 C 4 6.4349698 4.4349698 6 5 6 z M 5 15 L 45 15 C 45.56503 15 46 15.43497 46 16 L 46 43 C 46 43.56503 45.56503 44 45 44 L 5 44 C 4.4349698 44 4 43.56503 4 43 L 4 16 C 4 15.43497 4.4349698 15 5 15 z M 24.984375 18.986328 A 1.0001 1.0001 0 0 0 24 20 L 24 32.585938 L 20.707031 29.292969 A 1.0001 1.0001 0 0 0 19.990234 28.990234 A 1.0001 1.0001 0 0 0 19.292969 30.707031 L 24.150391 35.564453 A 1.0001 1.0001 0 0 0 25.005859 36.013672 A 1.0001 1.0001 0 0 0 25.007812 36.013672 A 1.0001 1.0001 0 0 0 25.009766 36.013672 A 1.0001 1.0001 0 0 0 25.013672 36.013672 A 1.0001 1.0001 0 0 0 25.853516 35.560547 L 30.707031 30.707031 A 1.0001 1.0001 0 0 0 29.980469 28.990234 A 1.0001 1.0001 0 0 0 29.292969 29.292969 L 26 32.585938 L 26 20 A 1.0001 1.0001 0 0 0 24.984375 18.986328 z M 15 38 A 1.0001 1.0001 0 1 0 15 40 L 35 40 A 1.0001 1.0001 0 1 0 35 38 L 15 38 z"/></svg>
